X:1     %Music
T:Football Crazy
B:Singing Together, Autumn 1968, BBC Publications
F:http://www.folkinfo.org/songs
M:4/4     %Meter
L:1/8     %
K:F
c |cc F/F/F CF AB |cc BA B3 
w:I have a fa-vour-ite bro-ther And his Christ-ian name is Paul. 
B |BB GF EG cB/B/ | AF GE F2 z
w:He's late-ly joined a foot-ball club For he's mad a-bout foot-ball.
 c |cc FF C F2 A |cc BA B2 z 
w: He's two black eyes al-rea-dy And teeth lost from his gob, 
B |c3/2c/ c3/2B/ Bd cB | A/A/F GE F2
w:Since Paul be-came a mem-ber of That ter-ri-ble foot-ball club. 
 AB |c2 F2 C F2 A |c2 A2 B2 z 
w:For he's foot-ball cra-zy, He's foot-ball mad, 
B |BB GF EG/G/ c3/2B/ | A/A/F/F/ GE F
w:The foot-ball it has tak-en a-way the lit-tle bit o' sense he had, 
G AB |c3/2c/ F3/2F/ C F2 A |cc BA B2 z 
w:And it would take a doz-en ser-vants To wash his clothes and scrub, 
B |c3/2c/ cA Bd cB |A/A/F GE F2 z2 |]
w:Since Paul be-came a mem-ber of That ter-ri-ble foot-ball club. 